X:15 
T:Variation no. 15 
C:J.S.Bach 
M:2/4 
L:1/16 
Q:150 
V:3 bass 
K:Gm 
[V:1] z8|zdd=e e^ffg|g4-gab=c'| 
[V:2] zG(GF) (FE)(ED)|D4-DCB,A,|G,^CC/D/C G4-| 
[V:3] G,2G,,2 z2G,2-|G,^F,/=E,/F,2 z2D,2|_E,2=E,2 z2_E2| 
% 
[V:1] d'aa/^g/a d4-|d2(e=f) (ed)(dc)|B2z2 z2c2|g/a/^fga bc'd'c'| 
[V:2] G2^F=E (F=G)(GA)|B2z2 z2A2|D/C/EDC B,A,G,A,|B,DG2- G2^F2| 
[V:3] DCD2 zCB,A,|(G,/^F,/G,)C,G, (CF,)(F,G,)|G,^F,G,A, D,2E,2|B,,2B,C D2D2| 
% 
[V:1] ba/g/d2- d2e2|d2z2 zedc|(Bc)(cd) (d_e)(ed)| 
[V:2] G2z2 z^FGA|(BA)(AG) (G^F)(FG)|G2z2 z2C2| 
[V:3] G,2B,,/C,/D,/B,,/ G,,2z2|z^F,G,A, B,2A,2|G,^F,2=E, F,/A,/G,2F,| 
% 
[V:1] d2z2 z2a2|b2d=e- ef2g|a2B2 =c2a2| 
[V:2] B,2G=F- F=E2D|^C2B2 A2C2|z2D/^C/D- DD2D-| 
[V:3] G,A,B,A, G,/A,/G,=F,/G,/F,|=E,F,G,E, ^C,D,E,C,|F,/=E,/D, G,4^F,2| 
% 
[V:1] z2g/a/g- gg2g-|gf/g/ab af^c2|z2g2- g^f/=e/f2 :| 
[V:2] D=E/D/^C=B, CEA2|z2D2-D=E/F/E/D/E|D4z4 :| 
[V:3] B,2=E,2A,2^C,2|D,2F,=E, F,2A,2|D=C/B,/A,/G,/A, D,4 :| 
% 
[V:1] z8|z2e2d2c2|gG2_A- AB2c|B2f2g2d2| 
[V:2] z2^F2G2A2|Dd2c- cB2A|B2E2D2G2|FG_A2 zB2A| 
[V:3] (D,_E)(ED) (DC)(CB,)|(B,^F,)(F,G,) (G,D,)D,2-|D,C,/B,,/C,=F,, F,B,,E,2-|E,D,/C,/D,/C,/B,, E,G,,_A,,B,,| 
% 
[V:1] edc2 zB2c|dBFD EFG_A|B8-| 
[V:2] GBeg fedc|B8-|B_A/G/F/G/A GF/E/F/E/D| 
[V:3] C,,G,,C,B,, _A,,G,,A,,2-|_A,,_A,B,A, G,F,E,F,|G,_A,B,2 B,,3A,| 
% 
[V:1] Bc/d/e/d/c de/f/e/f/g|f2z2 z4|zc(cd) e=eGe| 
[V:2] E2z2 z4|z_A(AG) ^F=FdF|E4-EDC_B,| 
[V:3] (G,F,)(F,E,) (F,G,)(G,_A,)|C,2=B,,2 z=A,,B,,G,,|C,2C2 z2C,2-| 
% 
[V:1] ^f4-fgab|c'bag ^fgf2-|fag2 z2c2| 
[V:2] A,B,CD EDE2-|ECD2 z2A2|d3c BAG=F| 
[V:3] C,DEB, A,B,CG,|(G,2^F,)G, A,B,/C/D/E/C|B,/D/CB,/C/A, G,/A,/=F,E,/F,/D,| 
% 
[V:1] G3A Bcd=e|^fgaf gf=e/d/c'-|c'^fga bc'd'2 :| 
[V:2] EDCE D=E^F/G/A,-|A,_EDC B,A,G,^F,|G,4z4 :| 
[V:3] C,E,/D,/E,^F,, G,,2z C,|D,2 zE, C,2D,2|G,D,/C,/B,,/C,/A,, G,,4 :|
